X:279
T:Dermot Byrne's
R:jig
Z:id:hn-jig-279
M:6/8
K:G
~B3 G2D|GBd gdc|BdB GED|EAA ABc|
~B3 GDD|GBd ~g3|agf gdB|A2G ABc:|
|:~d3 dcB|def gdB|~d3 dcB|A2G ABc|
ded BGB|def ~g3|agf gdB|A2G ABc:|

